X: 1
T: Mary Alick's
M: 4/4
L: 1/8
R: reel
K: Ddor
|:E ~D3 EDCD|EGAB ~c2 Bc|ABAG EGAB|cAGE EDCD|
E ~D3 EDCD|EGAB ~c2 Bc|ABAG EGAB|cBcG ED D2:|
|:dcAc dcAG|EGAB c2 Bc|dcAc dcAB|cAGE ED D2|
dcAc dcAG|EGAB c2 Bc|defd cAAB|cBcG ED D2:|
